src/icons/icons_set_03/042-lien.svg

<svg height="50" viewBox="0 0 50 50" width="50" xmlns="http://www.w3.org/2000/svg"><g fill="none" fill-rule="nonzero"><path d="m43.0700158 7.00120264c.5519581-.01912513 1.109247.18914552 1.5196572.62094615.5540577.58293486.6876628 1.4125344.410327 2.11429814v10.01355307c0 1.1045695-.8954305 2-2 2s-2-.8954305-2-2v-5.9567422l-11.6221488 11.0464152c-.8006274.7609663-2.0665491.7288145-2.8275153-.0718129-.7609662-.8006273-.7288145-2.0665491.0718129-2.8275153l11.5105501-10.9403448h-6.1326989c-1.1045695 0-2-.8954305-2-2s.8954305-2 2-2h11c.0234349 0 .0467757.00040306.0700158.00120264zm-5.0700158 21.44604326c0-1.1045695.8954305-2 2-2s2 .8954305 2 2v13.5527541c0 1.1045695-.8954305 2-2 2h-30c-1.1045695 0-2-.8954305-2-2v-30c0-1.1045695.8954305-2 2-2h14.6593844c1.1045695 0 2 .8954305 2 2s-.8954305 2-2 2h-12.6593844v26h26z" fill="#000"/><path d="m43.1400089 9-15.1400089 14.3900089" fill="#d8d8d8"/></g></svg>

<?xml version="1.0" encoding="UTF-8"?>
<svg width="50px" height="50px" viewBox="0 0 50 50" version="1.1" xmlns="http://www.w3.org/2000/svg" xmlns:xlink="http://www.w3.org/1999/xlink">
    <!-- Generator: Sketch 52.4 (67378) - http://www.bohemiancoding.com/sketch -->
    <title>042-lien</title>
    <desc>Created with Sketch.</desc>
    <g id="042-lien" stroke="none" stroke-width="1" fill="none" fill-rule="evenodd">
        <path d="M43.0700158,7.00120264 C43.6219739,6.98207751 44.1792628,7.19034816 44.589673,7.62214879 C45.1437307,8.20508365 45.2773358,9.03468319 45,9.73644693 L45,19.75 C45,20.8545695 44.1045695,21.75 43,21.75 C41.8954305,21.75 41,20.8545695 41,19.75 L41,13.7932578 L29.3778512,24.839673 C28.5772238,25.6006393 27.3113021,25.5684875 26.5503359,24.7678601 C25.7893697,23.9672328 25.8215214,22.701311 26.6221488,21.9403448 L38.1326989,11 L32,11 C30.8954305,11 30,10.1045695 30,9 C30,7.8954305 30.8954305,7 32,7 L43,7 C43.0234349,7 43.0467757,7.00040306 43.0700158,7.00120264 Z M38,28.4472459 C38,27.3426764 38.8954305,26.4472459 40,26.4472459 C41.1045695,26.4472459 42,27.3426764 42,28.4472459 L42,42 C42,43.1045695 41.1045695,44 40,44 L10,44 C8.8954305,44 8,43.1045695 8,42 L8,12 C8,10.8954305 8.8954305,10 10,10 L24.6593844,10 C25.7639539,10 26.6593844,10.8954305 26.6593844,12 C26.6593844,13.1045695 25.7639539,14 24.6593844,14 L12,14 L12,40 L38,40 L38,28.4472459 Z" id="Combined-Shape" fill="#000000" fill-rule="nonzero"></path>
        <path d="M43.1400089,9 L28,23.3900089" id="Path" fill="#D8D8D8" fill-rule="nonzero"></path>
    </g>
</svg>
